X: 9
M:6/8
L:1/8
K:C
EAA AGA|BAB GAB|eAA AGA|BAB g3|egg dee|
|:eaa aga|bab g3|aga e3|gfg d3|ee/2f/2e/2d/2 BB/2c/2B/2G/2|

